src/assets/filled/Dropbox.svg

<svg width="24" height="24" viewBox="0 0 24 24"  xmlns="http://www.w3.org/2000/svg">
<path d="M12.0001 5.99932L6.4401 9.99932L3.1901 7.79931C2.6101 7.40931 2.60011 6.56932 3.17011 6.15932L7.00009 3.39931C7.34009 3.15931 7.80011 3.14933 8.14011 3.37933L12.0001 5.99932Z" />
<path d="M20.81 7.80076L17.56 10.0008L12 6.00077L15.86 3.39079C16.21 3.16079 16.66 3.16078 17 3.41078L20.83 6.17079C21.4 6.57079 21.39 7.41076 20.81 7.80076Z" />
<path d="M11.9999 14L7.55992 17L4.99992 15.16L3.15992 13.84C2.59992 13.43 2.60991 12.59 3.17991 12.2L6.42991 10L11.9999 14Z" />
<path d="M20.81 12.2C21.39 12.59 21.4 13.43 20.83 13.84L18.99 15.16L16.43 17L11.99 14L17.55 10L20.81 12.2Z" />
<path d="M18.68 17.3401C18.81 17.2401 19 17.3401 19 17.5001V18.2301C19 18.6201 18.77 18.9701 18.42 19.1401L12.42 21.9101C12.15 22.0301 11.85 22.0301 11.58 21.9101L5.57999 19.1401C5.22999 18.9701 5 18.6201 5 18.2301V17.5001C5 17.3401 5.18001 17.2401 5.32001 17.3401L7.25 18.7301C7.42 18.8501 7.65001 18.8601 7.82001 18.7401L11.72 16.1001C11.89 15.9901 12.11 15.9901 12.28 16.1001L16.18 18.7401C16.35 18.8601 16.58 18.8501 16.75 18.7301L18.68 17.3401Z" />
</svg>

<?xml version="1.0" encoding="UTF-8"?>
<svg width="24" height="24" viewBox="0 0 24 24" xmlns="http://www.w3.org/2000/svg">
 <path d="m12 5.9993-5.56 4-3.25-2.2c-0.58-0.39-0.58999-1.23-0.01999-1.64l3.83-2.76c0.34-0.24 0.80002-0.24998 1.14-0.01998l3.86 2.62z"/>
 <path d="m20.81 7.8008-3.25 2.2-5.56-4 3.86-2.61c0.35-0.23 0.8-0.23001 1.14 0.01999l3.83 2.76c0.57 0.4 0.56 1.24-0.02 1.63z"/>
 <path d="m12 14-4.44 3-2.56-1.84-1.84-1.32c-0.56-0.41-0.55001-1.25 0.01999-1.64l3.25-2.2 5.57 4z"/>
 <path d="m20.81 12.2c0.58 0.39 0.59 1.23 0.02 1.64l-1.84 1.32-2.56 1.84-4.44-3 5.56-4 3.26 2.2z"/>
 <path d="m18.68 17.34c0.13-0.1 0.32 0 0.32 0.16v0.73c0 0.39-0.23 0.74-0.58 0.91l-6 2.77c-0.27 0.12-0.57 0.12-0.84 0l-6-2.77c-0.35-0.17-0.57999-0.52-0.57999-0.91v-0.73c0-0.16 0.18001-0.26 0.32001-0.16l1.93 1.39c0.17 0.12 0.40001 0.13 0.57001 0.01l3.9-2.64c0.17-0.11 0.39-0.11 0.56 0l3.9 2.64c0.17 0.12 0.4 0.11 0.57-0.01l1.93-1.39z"/>
</svg>
